src/icons/files/html.svg

<?xml version="1.0" standalone="no"?><!-- Generator: Gravit.io --><svg xmlns="http://www.w3.org/2000/svg" xmlns:xlink="http://www.w3.org/1999/xlink" style="isolation:isolate" viewBox="0 0 24 24" width="24" height="24"><path d="M 8.3 5.5 L 16.1 5.5 C 16.81749 5.5 17.4 6.08251 17.4 6.8 L 17.4 17.2 C 17.4 17.91749 16.81749 18.5 16.1 18.5 L 8.3 18.5 C 7.58251 18.5 7 17.91749 7 17.2 L 7 6.8 C 7 6.08251 7.58251 5.5 8.3 5.5 Z" style="stroke:none;fill:#790AC3;stroke-miterlimit:10;"/><path d=" M 15.94397 17.7192 L 13.15157 17.7192 L 13.15157 17.1927 L 14.26697 17.1927 L 14.26697 16.0188 L 13.15157 16.0188 L 13.15157 15.4923 L 15.94397 15.4923 L 15.94397 16.0188 L 14.7662 16.0188 L 14.7662 17.1927 L 15.94397 17.1927 L 15.94397 17.7192 L 15.94397 17.7192 Z  M 15.94397 13.8114 L 15.94397 14.3379 L 13.6508 14.3379 L 13.6508 15.1179 L 13.15157 15.1179 L 13.15157 13.0314 L 13.6508 13.0314 L 13.6508 13.8114 L 15.94397 13.8114 L 15.94397 13.8114 Z  M 15.94397 12.657 L 13.15157 12.657 L 13.15157 12.1383 L 14.62967 11.2842 L 14.62967 11.253 L 13.15157 10.3989 L 13.15157 9.8763 L 15.94397 9.8763 L 15.94397 10.3989 L 14.56727 10.3989 L 14.09927 10.3677 L 14.09927 10.3989 L 15.35117 11.1087 L 15.35117 11.4246 L 14.09927 12.1383 L 14.09927 12.1695 L 14.56727 12.1383 L 15.94397 12.1383 L 15.94397 12.657 L 15.94397 12.657 Z  M 15.94397 9.3147 L 13.15157 9.3147 L 13.15157 8.7882 L 15.444739 8.7882 L 15.444739 7.6065 L 15.94397 7.6065 L 15.94397 9.3147 L 15.94397 9.3147 Z " fill="rgb(255,255,255)"/></svg>

<svg xmlns="http://www.w3.org/2000/svg" width="24" height="24" viewBox="0 0 24 24"><g transform="translate(-2 -0.5)"><path d="M8.75,5.5h10.5A1.605,1.605,0,0,1,21,6.9V18.1a1.605,1.605,0,0,1-1.75,1.4H8.75A1.605,1.605,0,0,1,7,18.1V6.9A1.605,1.605,0,0,1,8.75,5.5Z" transform="translate(0)" fill="#790ac3"/><path d="M15.944,17.719H13.152v-.527h1.115V16.019H13.152v-.527h2.792v.527H14.766v1.174h1.178v.527Zm0-3.908v.526H13.651v.78h-.5V13.031h.5v.78Zm0-1.154H13.152v-.519l1.478-.854v-.031L13.152,10.4V9.876h2.792V10.4H14.567l-.468-.031V10.4l1.252.71v.316l-1.252.714v.031l.468-.031h1.377v.519Zm0-3.342H13.152V8.788h2.293V7.607h.5V9.315Z" transform="translate(3.6)" fill="#fff"/><rect width="24" height="24" transform="translate(2 0.5)" fill="none"/></g></svg>
